svgs/duotone/square-poll-vertical.svg

<svg xmlns="http://www.w3.org/2000/svg" viewBox="0 0 448 512"><!-- Font Awesome Pro 6.0.0-alpha2 by @fontawesome - https://fontawesome.com License - https://fontawesome.com/license (Commercial License) --><defs><style>.fa-secondary{opacity:.4}</style></defs><path d="M384 32H64C28.654 32 0 60.652 0 96V416C0 451.346 28.654 480 64 480H384C419.346 480 448 451.346 448 416V96C448 60.652 419.346 32 384 32ZM160 368C160 376.875 152.875 384 144 384H112C103.125 384 96 376.875 96 368V240C96 231.125 103.125 224 112 224H144C152.875 224 160 231.125 160 240V368ZM256 368C256 376.875 248.875 384 240 384H208C199.125 384 192 376.875 192 368V144C192 135.125 199.125 128 208 128H240C248.875 128 256 135.125 256 144V368ZM352 368C352 376.875 344.875 384 336 384H304C295.125 384 288 376.875 288 368V304C288 295.125 295.125 288 304 288H336C344.875 288 352 295.125 352 304V368Z" class="fa-secondary"/><path d="M144 224H112C103.125 224 96 231.125 96 240V368C96 376.875 103.125 384 112 384H144C152.875 384 160 376.875 160 368V240C160 231.125 152.875 224 144 224ZM336 288H304C295.125 288 288 295.125 288 304V368C288 376.875 295.125 384 304 384H336C344.875 384 352 376.875 352 368V304C352 295.125 344.875 288 336 288ZM240 128H208C199.125 128 192 135.125 192 144V368C192 376.875 199.125 384 208 384H240C248.875 384 256 376.875 256 368V144C256 135.125 248.875 128 240 128Z" class="fa-primary"/></svg>

<svg xmlns="http://www.w3.org/2000/svg" viewBox="0 0 448 512"><!--! Font Awesome Pro 6.0.0-alpha3 by @fontawesome - https://fontawesome.com License - https://fontawesome.com/license (Commercial License) --><defs><style>.fa-secondary{opacity:.4}</style></defs><path class="fa-primary" d="M144 224h-32C103.1 224 96 231.1 96 240v128C96 376.9 103.1 384 112 384h32C152.9 384 160 376.9 160 368v-128C160 231.1 152.9 224 144 224zM336 288h-32C295.1 288 288 295.1 288 304v64c0 8.875 7.125 16 16 16h32c8.875 0 16-7.125 16-16v-64C352 295.1 344.9 288 336 288zM240 127.1h-32C199.1 127.1 192 135.1 192 144v224C192 376.9 199.1 384 208 384h32c8.875 0 16-7.125 16-16v-224C256 135.1 248.9 127.1 240 127.1z"/><path class="fa-secondary" d="M384 31.1H64c-35.35 0-64 28.65-64 63.1v320c0 35.35 28.65 64 64 64h320c35.35 0 64-28.65 64-64v-320C448 60.65 419.3 31.1 384 31.1zM160 368C160 376.9 152.9 384 144 384h-32C103.1 384 96 376.9 96 368v-128C96 231.1 103.1 224 112 224h32C152.9 224 160 231.1 160 240V368zM256 368c0 8.875-7.125 16-16 16h-32C199.1 384 192 376.9 192 368v-224c0-8.875 7.125-16 16-16h32c8.875 0 16 7.125 16 16V368zM352 368c0 8.875-7.125 16-16 16h-32c-8.875 0-16-7.125-16-16v-64C288 295.1 295.1 288 304 288h32C344.9 288 352 295.1 352 304V368z"/></svg>
